X:45
T:Top of Cork Road
S:Bernie Waugh
R:Jig
M:6/8
L:1/8
K:D
|:A|\
"D"dAF DFA|"G"Bed ~cBA|"D"dcd efg|"A"fdf e2A|
"D"dAF DFA|"G"Bed ~cBA|"D"dcd "A"efg|"D"fdd d2:|
|:e|\
"D"fdf fga|"A"ece efg|"Bm"dBd fed|"F#m"cAA A2=c| 
"G"BGB Bcd|"D"AFA ABc|"D"dcd "A"efg|"D"fdd d2:|

